Adwaita/scalable/categories/applications-games-symbolic.svg

<?xml version="1.0" encoding="UTF-8"?>
<svg height="16px" viewBox="0 0 16 16" width="16px" xmlns="http://www.w3.org/2000/svg">
    <g fill="#2e3436">
        <path d="m 0 11 v 2.5 c 0 1.378906 1.121094 2.5 2.5 2.5 h 0.5 c 1.105469 0 2 -0.894531 2 -2 s 0.894531 -2 2 -2 s 2 0.894531 2 2 c 0.136719 1.242188 1.257812 2.136719 2.5 2 c 1.378906 0 2.5 -1.117188 2.5 -2.5 v -2.5 c 0 -2.210938 -1.789062 -4 -4 -4 h -6 c -2.210938 0 -4 1.789062 -4 4 z m 3.25 -2 h 0.5 c 0.136719 0 0.25 0.113281 0.25 0.25 v 0.75 h 0.75 c 0.136719 0 0.25 0.113281 0.25 0.25 v 0.5 c 0 0.140625 -0.113281 0.25 -0.25 0.25 h -0.75 v 0.75 c 0 0.140625 -0.113281 0.25 -0.25 0.25 h -0.5 c -0.140625 0 -0.25 -0.109375 -0.25 -0.25 v -0.75 h -0.75 c -0.140625 0 -0.25 -0.109375 -0.25 -0.25 v -0.5 c 0 -0.136719 0.109375 -0.25 0.25 -0.25 h 0.75 v -0.75 c 0 -0.136719 0.109375 -0.25 0.25 -0.25 z m 6.25 0.75 c 0.414062 0 0.75 0.335938 0.75 0.75 s -0.335938 0.75 -0.75 0.75 s -0.75 -0.335938 -0.75 -0.75 s 0.335938 -0.75 0.75 -0.75 z m 2 1 c 0.414062 0 0.75 0.335938 0.75 0.75 s -0.335938 0.75 -0.75 0.75 s -0.75 -0.335938 -0.75 -0.75 s 0.335938 -0.75 0.75 -0.75 z m 0 0"/>
        <path d="m 2 3.015625 c 0.007812 1.65625 1.359375 2.992187 3.015625 2.984375 h 7.96875 c 1.664063 0 3.015625 -1.351562 3.015625 -3.015625 c -0.007812 -1.65625 -1.359375 -2.9921875 -3.015625 -2.984375 h -7.96875 c -1.664063 0 -3.015625 1.351562 -3.015625 3.015625 z m 3.21875 -2.015625 h 0.5 c 0.136719 0 0.25 0.113281 0.25 0.25 v 0.75 h 0.75 c 0.136719 0 0.25 0.113281 0.25 0.25 v 0.5 c 0 0.140625 -0.113281 0.25 -0.25 0.25 h -0.75 v 0.75 c 0 0.140625 -0.113281 0.25 -0.25 0.25 h -0.5 c -0.140625 0 -0.25 -0.109375 -0.25 -0.25 v -0.75 h -0.75 c -0.140625 0 -0.25 -0.109375 -0.25 -0.25 v -0.5 c 0 -0.136719 0.109375 -0.25 0.25 -0.25 h 0.75 v -0.75 c 0 -0.136719 0.109375 -0.25 0.25 -0.25 z m 6.25 0.75 c 0.414062 0 0.75 0.335938 0.75 0.75 s -0.335938 0.75 -0.75 0.75 s -0.75 -0.335938 -0.75 -0.75 s 0.335938 -0.75 0.75 -0.75 z m 2 0.03125 c 0.414062 0 0.75 0.335938 0.75 0.75 s -0.335938 0.75 -0.75 0.75 s -0.75 -0.335938 -0.75 -0.75 s 0.335938 -0.75 0.75 -0.75 z m 0 0"/>
    </g>
</svg>

<?xml version="1.0" encoding="UTF-8"?>
<svg xmlns="http://www.w3.org/2000/svg" xmlns:xlink="http://www.w3.org/1999/xlink" width="16px" height="16px" viewBox="0 0 16 16" version="1.1">
<g id="surface41264">
<path style=" stroke:none;fill-rule:nonzero;fill:rgb(18.039216%,20.392157%,21.176471%);fill-opacity:1;" d="M 0 11 L 0 13.5 C 0 14.878906 1.121094 16 2.5 16 L 3 16 C 4.105469 16 5 15.105469 5 14 C 5 12.894531 5.894531 12 7 12 C 8.105469 12 9 12.894531 9 14 C 9.136719 15.242188 10.257812 16.136719 11.5 16 C 12.878906 16 14 14.882812 14 13.5 L 14 11 C 14 8.789062 12.210938 7 10 7 L 4 7 C 1.789062 7 0 8.789062 0 11 Z M 3.25 9 L 3.75 9 C 3.886719 9 4 9.113281 4 9.25 L 4 10 L 4.75 10 C 4.886719 10 5 10.113281 5 10.25 L 5 10.75 C 5 10.890625 4.886719 11 4.75 11 L 4 11 L 4 11.75 C 4 11.890625 3.886719 12 3.75 12 L 3.25 12 C 3.109375 12 3 11.890625 3 11.75 L 3 11 L 2.25 11 C 2.109375 11 2 10.890625 2 10.75 L 2 10.25 C 2 10.113281 2.109375 10 2.25 10 L 3 10 L 3 9.25 C 3 9.113281 3.109375 9 3.25 9 Z M 9.5 9.75 C 9.914062 9.75 10.25 10.085938 10.25 10.5 C 10.25 10.914062 9.914062 11.25 9.5 11.25 C 9.085938 11.25 8.75 10.914062 8.75 10.5 C 8.75 10.085938 9.085938 9.75 9.5 9.75 Z M 11.5 10.75 C 11.914062 10.75 12.25 11.085938 12.25 11.5 C 12.25 11.914062 11.914062 12.25 11.5 12.25 C 11.085938 12.25 10.75 11.914062 10.75 11.5 C 10.75 11.085938 11.085938 10.75 11.5 10.75 Z M 11.5 10.75 "/>
<path style=" stroke:none;fill-rule:nonzero;fill:rgb(18.039216%,20.392157%,21.176471%);fill-opacity:1;" d="M 2 3.015625 C 2.007812 4.671875 3.359375 6.007812 5.015625 6 L 12.984375 6 C 14.648438 6 16 4.648438 16 2.984375 C 15.992188 1.328125 14.640625 -0.0078125 12.984375 0 L 5.015625 0 C 3.351562 0 2 1.351562 2 3.015625 Z M 5.21875 1 L 5.71875 1 C 5.855469 1 5.96875 1.113281 5.96875 1.25 L 5.96875 2 L 6.71875 2 C 6.855469 2 6.96875 2.113281 6.96875 2.25 L 6.96875 2.75 C 6.96875 2.890625 6.855469 3 6.71875 3 L 5.96875 3 L 5.96875 3.75 C 5.96875 3.890625 5.855469 4 5.71875 4 L 5.21875 4 C 5.078125 4 4.96875 3.890625 4.96875 3.75 L 4.96875 3 L 4.21875 3 C 4.078125 3 3.96875 2.890625 3.96875 2.75 L 3.96875 2.25 C 3.96875 2.113281 4.078125 2 4.21875 2 L 4.96875 2 L 4.96875 1.25 C 4.96875 1.113281 5.078125 1 5.21875 1 Z M 11.46875 1.75 C 11.882812 1.75 12.21875 2.085938 12.21875 2.5 C 12.21875 2.914062 11.882812 3.25 11.46875 3.25 C 11.054688 3.25 10.71875 2.914062 10.71875 2.5 C 10.71875 2.085938 11.054688 1.75 11.46875 1.75 Z M 13.46875 1.78125 C 13.882812 1.78125 14.21875 2.117188 14.21875 2.53125 C 14.21875 2.945312 13.882812 3.28125 13.46875 3.28125 C 13.054688 3.28125 12.71875 2.945312 12.71875 2.53125 C 12.71875 2.117188 13.054688 1.78125 13.46875 1.78125 Z M 13.46875 1.78125 "/>
</g>
</svg>
